X:125
T:Sauney's Jigg. Ru2.125
%%VWML:RutherfordVol2-2249-p63-0
F:http://www.vwml.org/record/RutherfordVol2/2249/p63
Z:vmp.Steve Mansfield 2015 www.village-music-project.org.uk
M:C|
L:1/8
R:Jigg
W:Hands round all four & foot it .|  The same
W:Back again :| Gallop down the middle & up
W:again & Cast off .|. Right Hand & Left :|
Q:1/2=60
K:G
|:B/c/ | dGBG c=FA2 | dGBG gGB2 | dGBG cF (AB/c/) | dcBA G2G :|
|: B | DD=FA cFTA2 | GGBG dGTB2 | DD=FA cFAB/c/ | dcBA G2G :|
T:Bath Assembly. Ru2.126
B:RUTHERFORD Complete Collection of 200 Country Dances Vol.2; 1759.
Z:vmp.Steve Mansfield 2015 www.village-music-project.org.uk
M:C|
L:1/8
W:Cast off two Couple .| Lead up to the top & Cast off :|
W:Hands Round with the 3d Couple .|. Lead up to the
W:Top foot it and Cast off :|
Q:1/2=60
N:Preliminary epeat mark inserted by transcriber
K:Gmix
g |: "NB" GGBG cFAF | GGBG dGBe | fg a/g/f/e/ fcAF | GGBG dGBg :|
|: ff a/g/f/e/ cf AF | fe/f/ g/f/e/f/ g/f/e/f/ gG | \
f/e/f/g/ a/g/f/e/ fcAF | GGBB gGBg :|
